svg/u26c5.svg

<svg viewBox="0 0 128 128" xmlns="http://www.w3.org/2000/svg">
  <path d="M29.53,45.25c-7.14,9.17-7.02,25.48,2.11,33.55c10.36,9.17,24.93,9.08,34.1,0.64 c10.99-10.11,10.36-26.95,0.64-36.48C56.61,33.37,39.15,32.87,29.53,45.25z" fill="#FCC11A"/>
  <path d="M40.99,42.1c-2.82-1.25-5.91,2.15-7.26,4.48s-2.6,6.9,0.27,8.06s4.93-0.81,6.99-4.21 C43.05,47.03,44.21,43.54,40.99,42.1z" fill="#FEE269"/>
  <path d="M48.34,29.31c-0.68,1.28-0.45,2.26,0.9,2.59c1.36,0.32,9.82,1.7,10.53,1.74 c1.03,0.06,1.42-0.71,1.29-1.62c-0.13-0.9-2.2-13.57-2.39-14.74c-0.19-1.16-1.42-2.33-2.59-0.78 C54.93,18.07,48.85,28.34,48.34,29.31z" fill="#FFA722"/>
  <path d="M70.25,38.1c-1.33,0.41-1.29,1.23-0.58,2.26c0.71,1.03,5.62,8.53,6.08,9.05s1.23,0.65,1.87-0.13 s8.72-12.09,9.31-12.8c0.97-1.16,0.39-2.39-1.1-2C84.69,34.78,71.09,37.85,70.25,38.1z" fill="#FFA722"/>
  <path d="M19.84,72.49c0.9-1.49,2.07-1.1,2.91,0.32c0.58,0.97,5.43,7.5,5.88,8.21 c0.45,0.71,0.65,2.07-0.78,2.39c-1.42,0.32-12.99,3.36-14.8,3.68s-2.84-1.1-1.68-2.65C12.05,83.54,19.32,73.33,19.84,72.49z" fill="#FFA722"/>
  <path d="M17.38,61.24c1.65,0.74,2.43,0.47,2.78-0.71c0.45-1.55,1.81-8.66,1.87-10.28 c0.04-1.05-0.39-2.07-2-1.81c-1.62,0.26-13.25,1.87-14.74,2.39c-1.73,0.6-1.6,2.5-0.45,3.1C6.2,54.65,16.22,60.72,17.38,61.24z" fill="#FFA722"/>
  <path d="M37.48,34.1c0.93-0.74,0.65-1.81-0.19-2.39c-0.84-0.58-11.22-8.09-12.54-9.11 c-1.16-0.9-2.59-0.58-2.2,1.49c0.28,1.48,3.59,14.48,3.81,15.38c0.26,1.03,1.03,1.55,1.94,0.9C29.21,39.72,36.51,34.87,37.48,34.1z" fill="#FFA722"/>
  <path d="M109.13,81.18c0,0,1.45-28.45-21.58-34S57.81,63.97,57.81,63.97s-7.68-1.79-14.8,4.13 c-5.59,4.65-6.38,11.63-6.38,11.63s-7.35-1.12-13.47,4.82c-4.43,4.3-4,9.82-4,9.82l8.92,7.84l90.65-2.45l4.77-5.12 c0,0,0.76-5.68-4.54-9.95C113.66,80.41,109.13,81.18,109.13,81.18z" fill="#E2EBEE"/>
  <path d="M40.64,92.23c0,0,3.61,4.08,15.06,3.81s14.46-3.27,14.46-3.27s5.02,5.27,19.53,4.15 s18.68-4.18,18.68-4.18s3.54,2.53,8.02,2.6c4.47,0.07,7.11-0.71,7.11-0.71s-0.47,3.56-2.03,5.84c-1.56,2.28-4.16,4.02-8.27,3.99 c-4.12-0.03-16.64,0.08-29.35,0.06c-12.71-0.02-49.03,0.19-54.4-0.04c-4.09-0.17-7.06-2.58-8.43-4.62c-2.19-3.26-1.83-6.7-1.83-6.7 s4.12,3.23,9.68,2.99C36.47,95.83,40.64,92.23,40.64,92.23z" fill="#B9CED3"/>
</svg>

<svg viewBox="0 0 128 128" xmlns="http://www.w3.org/2000/svg">
  <defs/>
  <path d="M29.53,45.25 C22.39,54.42 22.51,70.73 31.64,78.8 C42,87.97 56.57,87.88 65.74,79.44 C76.73,69.33 76.1,52.49 66.38,42.96 C56.61,33.37 39.15,32.87 29.53,45.25 Z" fill="#FCC11A"/>
  <path d="M40.99,42.1 C38.17,40.85 35.08,44.25 33.73,46.58 C32.38,48.91 31.13,53.48 34,54.64 C36.87,55.8 38.93,53.83 40.99,50.43 C43.05,47.03 44.21,43.54 40.99,42.1 Z" fill="#FEE269"/>
  <path d="M48.34,29.31 C47.66,30.59 47.89,31.57 49.24,31.9 C50.6,32.22 59.06,33.6 59.77,33.64 C60.8,33.7 61.19,32.93 61.06,32.02 C60.93,31.12 58.86,18.45 58.67,17.28 C58.48,16.12 57.25,14.95 56.08,16.5 C54.93,18.07 48.85,28.34 48.34,29.31 Z" fill="#FFA722"/>
  <path d="M70.25,38.1 C68.92,38.51 68.96,39.33 69.67,40.36 C70.38,41.39 75.29,48.89 75.75,49.41 C76.21,49.93 76.98,50.06 77.62,49.28 C78.26,48.5 86.34,37.19 86.93,36.48 C87.9,35.32 87.32,34.09 85.83,34.48 C84.69,34.78 71.09,37.85 70.25,38.1 Z" fill="#FFA722"/>
  <path d="M19.84,72.49 C20.74,71 21.91,71.39 22.75,72.81 C23.33,73.78 28.18,80.31 28.63,81.02 C29.08,81.73 29.28,83.09 27.85,83.41 C26.43,83.73 14.86,86.77 13.05,87.09 C11.24,87.41 10.21,85.99 11.37,84.44 C12.05,83.54 19.32,73.33 19.84,72.49 Z" fill="#FFA722"/>
  <path d="M17.38,61.24 C19.03,61.98 19.81,61.71 20.16,60.53 C20.61,58.98 21.97,51.87 22.03,50.25 C22.07,49.2 21.64,48.18 20.03,48.44 C18.41,48.7 6.78,50.31 5.29,50.83 C3.56,51.43 3.69,53.33 4.84,53.93 C6.2,54.65 16.22,60.72 17.38,61.24 Z" fill="#FFA722"/>
  <path d="M37.48,34.1 C38.41,33.36 38.13,32.29 37.29,31.71 C36.45,31.13 26.07,23.62 24.75,22.6 C23.59,21.7 22.16,22.02 22.55,24.09 C22.83,25.57 26.14,38.57 26.36,39.47 C26.62,40.5 27.39,41.02 28.3,40.37 C29.21,39.72 36.51,34.87 37.48,34.1 Z" fill="#FFA722"/>
  <path d="M109.13,81.18 C109.13,81.18 110.58,52.73 87.55,47.18 C64.52,41.63 57.81,63.97 57.81,63.97 C57.81,63.97 50.13,62.18 43.01,68.1 C37.42,72.75 36.63,79.73 36.63,79.73 C36.63,79.73 29.28,78.61 23.16,84.55 C18.73,88.85 19.16,94.37 19.16,94.37 L28.08,102.21 L118.73,99.76 L123.5,94.64 C123.5,94.64 124.26,88.96 118.96,84.69 C113.66,80.41 109.13,81.18 109.13,81.18 Z" fill="#E2EBEE"/>
  <path d="M40.64,92.23 C40.64,92.23 44.25,96.31 55.7,96.04 C67.15,95.77 70.16,92.77 70.16,92.77 C70.16,92.77 75.18,98.04 89.69,96.92 C104.2,95.8 108.37,92.74 108.37,92.74 C108.37,92.74 111.91,95.27 116.39,95.34 C120.86,95.41 123.5,94.63 123.5,94.63 C123.5,94.63 123.03,98.19 121.47,100.47 C119.91,102.75 117.31,104.49 113.2,104.46 C109.08,104.43 96.56,104.54 83.85,104.52 C71.14,104.5 34.82,104.71 29.45,104.48 C25.36,104.31 22.39,101.9 21.02,99.86 C18.83,96.6 19.19,93.16 19.19,93.16 C19.19,93.16 23.31,96.39 28.87,96.15 C36.47,95.83 40.64,92.23 40.64,92.23 Z" fill="#B9CED3"/>
</svg>
